X:102
T: Reel de Joie
C: Dewey Balfa, arr. Pam Weeks
L: 1/8
M: C|
K: D
Q: 1/4=140
A2 d2 e2 |: "D" vf2 (fg) fedc | "Bm" B2 (Bc) BAde | "D" f2 (fg) fedc | "Bm" B3 ((B B)A)df |
"D" f2 (fg) fedc | "Bm" (BA)(Bc) BAFG | "A" (AB)AG (FD)EF |1 "D" D2 (AB) cde=f :|2 "D" D3 ((D D)E)FA ||
|: "Bm" vB2 (Bc) BABc | B2 (Bc) BAFA | B2 (Bc) BABc | B2 (Bc) BAFA | "G" B2 (Bc) BABc |
B2 (Bc) BAFG | "A" (AB)AG (FD)EF |1 "D" D3 ((D D)E)FA :|2 "D" D z uA2 d2 e2 |]
W: Revised considerably by Kate: C section removed,  transposed down a fifth from D
W: Good w/harmonica.  Goes well with Valse de Kennebec (played at UUCB).

%% transpose 0
